!!!COM: Palestrina, Giovanni Perluigi da
!!!OPR: Missa Io mi son giovinetta (1570)
!!!OTL: Agnus I
**kern	**kern	**kern	**kern
*Ibass	*Itenor	*Icalto	*Icant
!Bassus	!Tenor	!Altus	!Cantus
*clefF4	*clefGv2	*clefG2	*clefG2
*k[b-]	*k[b-]	*k[b-]	*k[b-]
*G:dor	*G:dor	*G:dor	*G:dor
*M4/2	*M4/2	*M4/2	*M4/2
=1	=1	=1	=1
1G	1.d	1r	0r
1G	.	[1g	.
.	2d	.	.
=2	=2	=2	=2
2.c	2.e	2g]	0r
.	.	2g	.
4B-	4d	.	.
4A	2c	2.a	.
4G	.	.	.
4F	[2f	.	.
4E	.	4g	.
=3	=3	=3	=3
2D	2f]	2f	0r
2C	2.e	2g	.
2D	.	2f	.
.	4d	.	.
2G	[2d	2g	.
=4	=4	=4	=4
1A	2d]	2e	1r
.	2c#	4a	.
.	.	4g	.
2.B-	1d	4f	[1dd
.	.	4e	.
.	.	4d	.
4A	.	4c	.
=5	=5	=5	=5
4G	2r	4B-	2dd]
4F	.	4A	.
2G	1g	2B	2dd
1C	.	1c	2.ee
.	2g	.	.
.	.	.	4dd
=6	=6	=6	=6
0r	2.a	2.f	2cc
.	.	.	1ff
.	4g	4g	.
.	2f	2a	.
.	2g	2b-	[2ee
=7	=7	=7	=7
0r	2f	2a	4ee]
.	.	.	4dd
.	2g	2b-	2.dd
.	1e	[1g	.
.	.	.	4cc
.	.	.	[2cc
=8	=8	=8	=8
1.G	1.d	0g]	2cc]
.	.	.	4b-
.	.	.	4a
.	.	.	1b
2G	2g	.	.
=9	=9	=9	=9
2.A	2e	0r	2.cc
.	1f	.	.
4G	.	.	4b-
2F	.	.	2a
2G	[2e	.	2g
=10	=10	=10	=10
2F	4e]	2r	2a
.	4d	.	.
2G	1d	1g	2b-
1E	.	.	2g
.	2c	2g	2cc
=11	=11	=11	=11
1D	2.f	2.a	2dd
.	.	.	1ff
.	4e	4g	.
1r	2d	2f	.
.	2c	2g	[2ee
=12	=12	=12	=12
1r	2d	2f	4ee]
.	.	.	4dd
.	2G	2g	1dd
2r	1A	1e	.
2A	.	.	2cc#
=13	=13	=13	=13
2B-	2r	1d	1dd
2G	2d	.	.
2A	2f	1r	1r
2B-	2d	.	.
=14	=14	=14	=14
2c	2e	1r	2r
2d	2f	.	2a
1G	2.g	2r	2b-
.	.	2d	2g
.	8f	.	.
.	8e	.	.
=15	=15	=15	=15
0r	1d	2f	2a
.	.	2d	2b-
.	2c	2e	2cc
.	2B-	2f	[2dd
=16	=16	=16	=16
1r	1e-	2.g	2dd]
.	.	.	2cc
.	.	4a	.
2r	2.d	2b-	1dd
2D	.	[2a	.
.	8c	.	.
.	8B-	.	.
=17	=17	=17	=17
2F	2A	2a]	0r
2D	2.d	2f	.
2E	.	2g	.
.	4c	.	.
2F	2c	[2a	.
=18	=18	=18	=18
1G	1B-	4a]	1r
.	.	4g	.
.	.	1g	.
4D	1A	.	2r
4E	.	.	.
4F	.	2f	2a
4G	.	.	.
=19	=19	=19	=19
1A	0r	2.e	2cc
.	.	.	2a
.	.	4f	.
2G	.	2g	2b-
2F	.	[2a	2cc
=20	=20	=20	=20
1B-	1r	2a]	1dd
.	.	2g	.
[1A	2r	[1a	2.cc
.	2A	.	.
.	.	.	4dd
=21	=21	=21	=21
1A]	2c	1a]	4ee
.	.	.	4cc
.	2A	.	2.ff
1r	2B-	1g	.
.	.	.	8ee
.	.	.	8dd
.	2c	.	2ee
=22	=22	=22	=22
2r	2.d	1f	0a
2D	.	.	.
.	8c	.	.
.	8B-	.	.
2F	2A	2r	.
[2D	2f	2d	.
=23	=23	=23	=23
2D]	2d	2f	2r
2D	2f	2d	2a
1A	2e	2e	2cc
.	2c	2f	2a
=24	=24	=24	=24
2G	2d	2g	2b-
2F	2.f	2.a	2cc
4D	.	.	1dd
4E	4g	4g	.
4F	[2a	2f	.
4G	.	.	.
=25	=25	=25	=25
4A	4a]	2.e	1cc
4B-	4g	.	.
2c	4e	.	.
.	4f	4c	.
2G	2g	4d	2b-
.	.	4e	.
2A	2c	[2f	[2a
=26	=26	=26	=26
1B-	1d	4f]	2a]
.	.	4e	.
.	.	1d	2g
1A	1e	.	[1a
.	.	2c#	.
=27	=27	=27	=27
0D	2.f	2d	1a]
.	.	1a	.
.	4e	.	.
.	1d	.	2r
.	.	2f	2dd
=28	=28	=28	=28
0r	0r	2g	2b-
.	.	2a	2cc
.	.	4d	2.dd
.	.	4e	.
.	.	4f	.
.	.	4g	4ee
=29	=29	=29	=29
0r	1r	4a	2ff
.	.	4b-	.
.	.	4cc	2ee
.	.	4a	.
.	2r	2b-	2.dd
.	[2d	4a	.
.	.	4g	8cc
.	.	.	8b-
=30	=30	=30	=30
0r	2d]	2f	2a
.	2B-	1g	2g
.	2c	.	1a
.	2d	2f#	.
=31	=31	=31	=31
0r	4G	2g	1b-
.	4A	.	.
.	4B-	2d	.
.	4c	.	.
.	4d	2.f	[1a
.	4e	.	.
.	[2f	.	.
.	.	4e	.
=32	=32	=32	=32
2r	2f]	2d	0a]
1A	4e	2c	.
.	4d	.	.
.	2c	2e	.
2F	[2d	2f	.
=33	=33	=33	=33
2G	2d]	1e	0r
2A	2c	.	.
4D	2.f	2r	.
4E	.	.	.
4F	.	[2a	.
4G	8e	.	.
.	8d	.	.
=34	=34	=34	=34
2A	2c	2a]	2r
2.B-	2d	2f	1dd
.	1G	1g	.
4A	.	.	.
2G	.	.	2b-
=35	=35	=35	=35
2F	0r	2a	2cc
2D	.	2.b-	2dd
1E-	.	.	4g
.	.	4a	4a
.	.	2g	4b-
.	.	.	4cc
=36	=36	=36	=36
1D	2r	4f	4dd
.	.	4g	4ee
.	1d	4a	1ff
.	.	4f	.
1r	.	1b-	.
.	2B-	.	2dd
=37	=37	=37	=37
0r	2c	1a	2ee
.	2d	.	2ff
.	4G	1b-	1gg
.	4A	.	.
.	4B-	.	.
.	4c	.	.
=38	=38	=38	=38
2r	4d	2.a	2.ff
.	4e	.	.
1D	1f	.	.
.	.	4g	4ee
.	.	4f	1dd
.	.	4d	.
2BB-	2d	[2g	.
=39	=39	=39	=39
2C	2e-	2g]	2cc
2D	2d	2f	2.b-
1E-	2.G	2g	.
.	.	.	4a
.	.	2c	[2g
.	4A	.	.
=40	=40	=40	=40
0D	2B-	0d	2g]
.	4A	.	4f
.	4G	.	4e
.	1A	.	1f#
=41	=41	=41	=41
1G	2G	2r	[0g
.	1B-	1d	.
1G	.	.	.
.	2d	2B-	.
=42	=42	=42	=42
2C	2e-	2c	1g_
2BB	2d	2d	.
1C	1c	1e-	1g_
=43	=43	=43	=43
0G	0B	0d	0g]
==	==	==	==
*-	*-	*-	*-
!!!CDT: 1525/^1526/-1594/2/2
!!!OCY: Italia
!!!AGN: Mass (Parody)
!!!AST: renaissance, vocal
!!!ASW: Madrigal 1542 (Ferabosco)
!!!PWK: Masses, Book 3
!!!RNB: Cadence finals: A
!!!YOR: Le Opere Complete, v. 6, p. 30
!!!YOO: Rome, Italy: Fratelli Scalera
!!!END: 1992//
!!!EED: John Miller
!!!YEC: Copyright 2000, John Miller
!!!YEN: United States of America
!!!YEM: Rights to all derivative electronic formats reserved.
!!!YEM: Refer to licensing agreement for further details.
!!!YEM: This file must be accompanied by the licensing agreement.
!!!YEM: A copy of the licensing agreement may be found at http://www.music-cog.ohio-state.edu/HumdrumDatabases/Palestrina/license.txt
!!!EMD: converted to Humdrum by Bret Aarden
